communes/85.svg

<?xml version="1.0" encoding="UTF-8" standalone="no"?>
<!-- Created with Inkscape (http://www.inkscape.org/) -->
<svg
   xmlns:svg="http://www.w3.org/2000/svg"
   xmlns="http://www.w3.org/2000/svg"
   version="1.0"
   width="207.14026"
   height="242.63255"
   id="svg2780">
  <defs
     id="defs2782" />
  <g
     transform="translate(-20.215708,-811.89522)"
     id="layer1">
    <path
       d="M 21.215708,812.89522 L 24.945527,969.58617 C 27.609677,1081.5083 219.96199,1081.5083 222.62615,969.58617 L 226.35597,812.89522 L 21.215708,812.89522 z"
       id="path3282"
       style="fill:#ffffff;fill-opacity:1;fill-rule:evenodd;stroke:#000000;stroke-width:2;stroke-linecap:butt;stroke-miterlimit:4;stroke-dashoffset:0;stroke-opacity:1" />
    <g
       transform="translate(-0.229909,0)"
       id="g3613">
      <path
         d="M 186.60535,962.00942 C 181.08739,911.43614 161.04499,868.69925 125.68663,828.81504 C 124.72047,827.72513 123.26154,827.75907 122.31748,828.81504 C 86.837631,868.49934 66.944101,911.43614 61.426146,962.00942 C 103.21794,979.21203 144.859,978.30802 186.60535,962.00942 z"
         id="path4911"
         style="fill:#151518;fill-opacity:1;fill-rule:evenodd;stroke:#ffffff;stroke-width:1px;stroke-linecap:butt;stroke-linejoin:round;stroke-opacity:1" />
      <path
         d="M 62.054108,957.71794 C 103.4169,974.5651 144.63327,973.68752 185.95147,957.71484"
         id="path4823"
         style="fill:#151518;fill-opacity:1;fill-rule:evenodd;stroke:#ffffff;stroke-width:1px;stroke-linecap:butt;stroke-linejoin:round;stroke-opacity:1" />
      <path
         d="M 145.56505,1011.1523 C 147.59956,972.05331 142.2083,931.58651 126.4819,897.08552 C 125.25145,894.38613 122.40709,894.40185 121.15386,897.08552 C 104.99204,931.69463 101.21863,971.33494 102.19998,1010.4132 C 114.4371,1014.2509 133.5696,1013.4599 145.56505,1011.1523 z"
         id="path4914"
         style="fill:#151518;fill-opacity:1;fill-rule:evenodd;stroke:#ffffff;stroke-width:1px;stroke-linecap:butt;stroke-linejoin:miter;stroke-opacity:1" />
      <path
         d="M 136.66485,998.93424 L 135.85692,966.53843 L 129.89846,970.33656 L 131.41333,1002.3973 L 136.66485,998.93424 z"
         id="path4916"
         style="fill:#151518;fill-opacity:1;fill-rule:evenodd;stroke:#ffffff;stroke-width:0.99921274;stroke-linecap:butt;stroke-linejoin:round;stroke-miterlimit:4;stroke-dasharray:none;stroke-opacity:1" />
      <path
         d="M 124.01574,1011.4458 C 113.31497,1011.4458 104.29727,1009.4207 104.29727,1006.3072 C 104.29727,1003.3061 112.57853,1002.8442 116.61816,1002.3973 L 111.36664,998.93424 C 107.93295,999.60457 94.198183,1001.7841 94.198183,1007.2008 C 94.198183,1012.7293 107.77134,1016.1376 124.01574,1016.1376 C 140.26015,1016.1376 153.8333,1012.7293 153.8333,1007.2008 C 153.8333,1001.7841 140.09853,999.60457 136.66485,998.93424 L 131.41333,1002.3973 C 135.45296,1002.8442 143.73421,1003.3061 143.73421,1006.3072 C 143.73421,1009.4207 134.71651,1011.4458 124.01574,1011.4458 z"
         id="path4918"
         style="fill:#151518;fill-opacity:1;fill-rule:evenodd;stroke:#ffffff;stroke-width:0.99921274;stroke-linecap:butt;stroke-linejoin:round;stroke-miterlimit:4;stroke-dasharray:none;stroke-opacity:1" />
      <path
         d="M 151.6115,971.78879 L 153.8333,1007.2008 C 153.8333,1001.7841 140.09853,999.60457 136.66485,998.93424 L 135.85692,966.53843 C 139.89655,966.98527 148.58178,969.13833 151.6115,971.78879 z"
         id="path4920"
         style="fill:#151518;fill-opacity:1;fill-rule:evenodd;stroke:#ffffff;stroke-width:0.99921274;stroke-linecap:butt;stroke-linejoin:round;stroke-miterlimit:4;stroke-dasharray:none;stroke-opacity:1" />
      <path
         d="M 111.36664,998.93424 L 112.17456,966.53843 L 118.13303,970.33656 L 116.61816,1002.3973 L 111.36664,998.93424 z"
         id="path4922"
         style="fill:#151518;fill-opacity:1;fill-rule:evenodd;stroke:#ffffff;stroke-width:0.99921274;stroke-linecap:butt;stroke-linejoin:round;stroke-miterlimit:4;stroke-dasharray:none;stroke-opacity:1" />
      <path
         d="M 96.419989,971.78879 L 94.198191,1007.2008 C 94.198191,1001.7841 107.93296,999.60457 111.36664,998.93424 L 112.17456,966.53843 C 108.13494,966.98527 99.449713,969.13833 96.419989,971.78879 z"
         id="path4924"
         style="fill:#151518;fill-opacity:1;fill-rule:evenodd;stroke:#ffffff;stroke-width:0.99921274;stroke-linecap:butt;stroke-linejoin:round;stroke-miterlimit:4;stroke-dasharray:none;stroke-opacity:1" />
    </g>
  </g>
</svg>

<?xml version="1.0" encoding="UTF-8"?>
<svg version="1.0" viewBox="0 0 207.14 242.63" xmlns="http://www.w3.org/2000/svg">
<g transform="translate(-20.216 -811.9)" fill-rule="evenodd">
<path d="m21.216 812.9 3.7298 156.69c2.6642 111.92 195.02 111.92 197.68 0l3.7298-156.69h-205.14z" fill="#fff" stroke="#000" stroke-width="2"/>
<g transform="translate(-.22991)" fill="#151518" stroke="#fff">
<path d="m186.61 962.01c-5.518-50.573-25.56-93.31-60.919-133.19-0.96616-1.0899-2.4251-1.056-3.3692 0-35.48 39.684-55.373 82.621-60.891 133.19 41.792 17.203 83.433 16.299 125.18 0z" stroke-linejoin="round" stroke-width="1px"/>
<path d="m62.054 957.72c41.363 16.847 82.579 15.97 123.9-0.0031" stroke-linejoin="round" stroke-width="1px"/>
<path d="m145.57 1011.2c2.0345-39.099-3.3568-79.566-19.083-114.07-1.2304-2.6994-4.0748-2.6837-5.328 0-16.162 34.609-19.935 74.249-18.954 113.33 12.237 3.8377 31.37 3.0467 43.365 0.7391z" stroke-width="1px"/>
<path d="m136.66 998.93-0.80793-32.396-5.9585 3.7981 1.5149 32.061 5.2515-3.4631z" stroke-linejoin="round" stroke-width=".99921"/>
<path d="m124.02 1011.4c-10.701 0-19.718-2.0251-19.718-5.1386 0-3.0011 8.2813-3.463 12.321-3.9099l-5.2515-3.4631c-3.4337 0.67033-17.168 2.8499-17.168 8.2666 0 5.5285 13.573 8.9368 29.818 8.9368 16.244 0 29.818-3.4083 29.818-8.9368 0-5.4167-13.735-7.5962-17.168-8.2666l-5.2515 3.4631c4.0396 0.4469 12.321 0.9088 12.321 3.9099 0 3.1135-9.0177 5.1386-19.718 5.1386z" stroke-linejoin="round" stroke-width=".99921"/>
<path d="m151.61 971.79 2.2218 35.412c0-5.4167-13.735-7.5962-17.168-8.2666l-0.80793-32.396c4.0396 0.44684 12.725 2.5999 15.755 5.2504z" stroke-linejoin="round" stroke-width=".99921"/>
<path d="m111.37 998.93 0.80792-32.396 5.9585 3.7981-1.5149 32.061-5.2515-3.4631z" stroke-linejoin="round" stroke-width=".99921"/>
<path d="m96.42 971.79-2.2218 35.412c0-5.4167 13.735-7.5962 17.168-8.2666l0.80792-32.396c-4.0396 0.44684-12.725 2.5999-15.755 5.2504z" stroke-linejoin="round" stroke-width=".99921"/>
</g>
</g>
</svg>
